X:160
M:2/4
L:1/8
K:A
ecBA | Acec | aedc | BABc | A4 :: ecec | ecec | fdfd | fdfd | ecec |
ecec | aedc | "tr"c2B2 | ecec | ecec | fdfd | fdfd | ecec | aedc | fdcB | A4 :|

